X:218
T:Hag's Purse, The
R:jig
D:De Danann 1
D:Moving Cloud
Z:id:hn-jig-218
M:6/8
K:Dmix
A2D FED|A2B cAF|G2E EDE|c2d cAG|
A2D FED|A2B cAF|GEE cEE|DED D3:|
|:d2e =fed|e2d cAF|G2E EDE|c2d cAG|
d2e =fed|e2d cAF|GEE cEE|DED D3:|
P:variations
|:A2D FED|AdB cAF|GEE EDE|c2d cAG|
A2D FED|AdB cAF|GEE cGE|DED D3:|
|:Ade =fed|e2d cAF|GEE EDE|c2d cAG|
Ade =fed|e2d cAF|GEE cGE|DED D3:|

